X: 17692
T: Holm Burn, The
R: jig
M: 6/8
K: Gmajor
GAB dgf|edB dgf|edB dBG|ABA GED|
GAB dgf|edB d2g|edg edg|edg edB:|
|:DBD BDB|DBD BDB|ABA ABd|BAG AGE|
DBD BDB|DBD B2d|efe edg|edB AGE:|

